assets/1. F-P/Input numbers/Color/Input.Numbers-color.svg

<svg width="100%" height="100%" viewBox="0 0 32 32" fill="none" xmlns="http://www.w3.org/2000/svg">
<g filter="url(#filter0_ii_18590_2242)">
<rect x="1.93433" y="1.5625" width="27.875" height="27.875" rx="3.6" fill="url(#paint0_linear_18590_2242)"/>
<rect x="1.93433" y="1.5625" width="27.875" height="27.875" rx="3.6" fill="url(#paint1_radial_18590_2242)"/>
</g>
<g filter="url(#filter1_f_18590_2242)">
<path d="M28.1218 4.0625V26.9375" stroke="url(#paint2_linear_18590_2242)" stroke-width="1.5" stroke-linecap="round"/>
</g>
<g filter="url(#filter2_f_18590_2242)">
<path d="M5.39819 3.375H27.1794" stroke="url(#paint3_linear_18590_2242)" stroke-width="1.5" stroke-linecap="round"/>
</g>
<g filter="url(#filter3_f_18590_2242)">
<path d="M20.3871 7.53148C20.7048 7.15364 20.9874 7.06521 21.1657 7.05629C21.3575 7.04669 21.5541 7.12187 21.7119 7.27928C21.8688 7.43587 21.9735 7.66234 21.9725 7.92628C21.9715 8.18055 21.8706 8.54264 21.486 8.95568C21.1222 9.34648 20.6402 9.85053 20.1407 10.3729L20.14 10.3736C19.4443 11.1012 18.7147 11.8642 18.2233 12.4059C17.4464 13.2624 18.0957 14.5575 19.1812 14.5575H23.2317C23.7894 14.5575 24.2416 14.1054 24.2416 13.5476C24.2416 12.9899 23.7894 12.5377 23.2317 12.5377H21.0993C21.0114 12.5377 20.9663 12.4325 21.027 12.3689C21.2006 12.187 21.3772 12.0025 21.5532 11.8185C22.0559 11.2932 22.554 10.7727 22.9643 10.332C24.374 8.81787 24.2378 6.94628 23.1385 5.84947C22.6115 5.32363 21.8724 4.99861 21.0647 5.03903C20.2436 5.08012 19.4631 5.49193 18.8411 6.2317C18.4822 6.65862 18.5373 7.29567 18.9643 7.65459C19.3912 8.01352 20.0282 7.9584 20.3871 7.53148Z" fill="#579FFF"/>
<path d="M12.4508 6.04558C12.4508 5.63261 12.1994 5.26126 11.816 5.1079C11.4326 4.95454 10.9944 5.05008 10.7096 5.34914L8.8778 7.27276C8.49316 7.67667 8.50879 8.31591 8.9127 8.70054C9.31661 9.08517 9.95585 9.06954 10.3405 8.66563V8.66563C10.3732 8.63129 10.4311 8.65444 10.4311 8.70186V13.5477C10.4311 14.1054 10.8832 14.5576 11.441 14.5576C11.9987 14.5576 12.4508 14.1054 12.4508 13.5477V6.04558Z" fill="#579FFF"/>
<path d="M10.3547 18.9713C10.5009 18.6681 10.8096 18.4623 11.1645 18.4623C11.6603 18.4623 12.0622 18.8642 12.0622 19.3601C12.0622 19.724 11.845 20.0392 11.532 20.1797C11.5226 20.184 11.5124 20.1865 11.502 20.1876C11.0902 20.2326 10.7319 20.53 10.6296 20.956C10.4997 21.4971 10.8319 22.0411 11.3721 22.1729C11.3885 22.1778 11.4051 22.1822 11.4218 22.1862C11.7926 22.2966 12.0622 22.6414 12.0622 23.0468C12.0622 23.5427 11.6603 23.9446 11.1644 23.9446C10.7651 23.9446 10.4243 23.6832 10.3086 23.3197C10.1395 22.7882 9.5715 22.4944 9.04001 22.6635C8.50852 22.8326 8.21476 23.4006 8.38387 23.9321C8.75851 25.1095 9.86032 25.9644 11.1644 25.9644C12.7758 25.9644 14.082 24.6582 14.082 23.0468C14.082 22.3766 13.8562 21.7596 13.4767 21.2674C13.4477 21.2298 13.4477 21.1771 13.4767 21.1395C13.8562 20.6473 14.082 20.0304 14.082 19.3601C14.082 17.7487 12.7758 16.4425 11.1645 16.4425C10.005 16.4425 9.00541 17.119 8.5353 18.0943C8.29311 18.5967 8.50408 19.2003 9.00651 19.4425C9.50894 19.6847 10.1126 19.4737 10.3547 18.9713Z" fill="#579FFF"/>
<path d="M20.0889 16.5265C20.6301 16.6614 20.9594 17.2095 20.8245 17.7507L20.11 20.6167C20.0942 20.6798 20.142 20.7409 20.207 20.7409H21.075C21.1303 20.7409 21.175 20.6961 21.175 20.6409V20.1032C21.175 19.5454 21.6272 19.0933 22.1849 19.0933C22.7427 19.0933 23.1948 19.5454 23.1948 20.1032V20.6796C23.1948 20.7271 23.2285 20.7676 23.2741 20.7808C23.6947 20.9028 24.002 21.2909 24.002 21.7508C24.002 22.2107 23.6947 22.5988 23.2741 22.7208C23.2285 22.7341 23.1948 22.7745 23.1948 22.822V24.9389C23.1948 25.4966 22.7427 25.9488 22.1849 25.9488C21.6272 25.9488 21.175 25.4966 21.175 24.9389V22.8607C21.175 22.8055 21.1303 22.7607 21.075 22.7607H18.7864C18.4755 22.7607 18.182 22.6175 17.9906 22.3726C17.7992 22.1276 17.7313 21.8081 17.8065 21.5065L18.8647 17.262C18.9996 16.7209 19.5477 16.3915 20.0889 16.5265Z" fill="#579FFF"/>
</g>
<g filter="url(#filter4_ii_18590_2242)">
<path d="M20.3871 7.53148C20.7048 7.15364 20.9874 7.06521 21.1657 7.05629C21.3575 7.04669 21.5541 7.12187 21.7119 7.27928C21.8688 7.43587 21.9735 7.66234 21.9725 7.92628C21.9715 8.18055 21.8706 8.54264 21.486 8.95568C21.1222 9.34648 20.6402 9.85053 20.1407 10.3729L20.14 10.3736C19.4443 11.1012 18.7147 11.8642 18.2233 12.4059C17.4464 13.2624 18.0957 14.5575 19.1812 14.5575H23.2317C23.7894 14.5575 24.2416 14.1054 24.2416 13.5476C24.2416 12.9899 23.7894 12.5377 23.2317 12.5377H21.0993C21.0114 12.5377 20.9663 12.4325 21.027 12.3689C21.2006 12.187 21.3772 12.0025 21.5532 11.8185C22.0559 11.2932 22.554 10.7727 22.9643 10.332C24.374 8.81787 24.2378 6.94628 23.1385 5.84947C22.6115 5.32363 21.8724 4.99861 21.0647 5.03903C20.2436 5.08012 19.4631 5.49193 18.8411 6.2317C18.4822 6.65862 18.5373 7.29567 18.9643 7.65459C19.3912 8.01352 20.0282 7.9584 20.3871 7.53148Z" fill="#FCF2FF"/>
<path d="M12.4508 6.04558C12.4508 5.63261 12.1994 5.26126 11.816 5.1079C11.4326 4.95454 10.9944 5.05008 10.7096 5.34914L8.8778 7.27276C8.49316 7.67667 8.50879 8.31591 8.9127 8.70054C9.31661 9.08517 9.95585 9.06954 10.3405 8.66563V8.66563C10.3732 8.63129 10.4311 8.65444 10.4311 8.70186V13.5477C10.4311 14.1054 10.8832 14.5576 11.441 14.5576C11.9987 14.5576 12.4508 14.1054 12.4508 13.5477V6.04558Z" fill="#FCF2FF"/>
<path d="M10.3547 18.9713C10.5009 18.6681 10.8096 18.4623 11.1645 18.4623C11.6603 18.4623 12.0622 18.8642 12.0622 19.3601C12.0622 19.724 11.845 20.0392 11.532 20.1797C11.5226 20.184 11.5124 20.1865 11.502 20.1876C11.0902 20.2326 10.7319 20.53 10.6296 20.956C10.4997 21.4971 10.8319 22.0411 11.3721 22.1729C11.3885 22.1778 11.4051 22.1822 11.4218 22.1862C11.7926 22.2966 12.0622 22.6414 12.0622 23.0468C12.0622 23.5427 11.6603 23.9446 11.1644 23.9446C10.7651 23.9446 10.4243 23.6832 10.3086 23.3197C10.1395 22.7882 9.5715 22.4944 9.04001 22.6635C8.50852 22.8326 8.21476 23.4006 8.38387 23.9321C8.75851 25.1095 9.86032 25.9644 11.1644 25.9644C12.7758 25.9644 14.082 24.6582 14.082 23.0468C14.082 22.3766 13.8562 21.7596 13.4767 21.2674C13.4477 21.2298 13.4477 21.1771 13.4767 21.1395C13.8562 20.6473 14.082 20.0304 14.082 19.3601C14.082 17.7487 12.7758 16.4425 11.1645 16.4425C10.005 16.4425 9.00541 17.119 8.5353 18.0943C8.29311 18.5967 8.50408 19.2003 9.00651 19.4425C9.50894 19.6847 10.1126 19.4737 10.3547 18.9713Z" fill="#FCF2FF"/>
<path d="M20.0889 16.5265C20.6301 16.6614 20.9594 17.2095 20.8245 17.7507L20.11 20.6167C20.0942 20.6798 20.142 20.7409 20.207 20.7409H21.075C21.1303 20.7409 21.175 20.6961 21.175 20.6409V20.1032C21.175 19.5454 21.6272 19.0933 22.1849 19.0933C22.7427 19.0933 23.1948 19.5454 23.1948 20.1032V20.6796C23.1948 20.7271 23.2285 20.7676 23.2741 20.7808C23.6947 20.9028 24.002 21.2909 24.002 21.7508C24.002 22.2107 23.6947 22.5988 23.2741 22.7208C23.2285 22.7341 23.1948 22.7745 23.1948 22.822V24.9389C23.1948 25.4966 22.7427 25.9488 22.1849 25.9488C21.6272 25.9488 21.175 25.4966 21.175 24.9389V22.8607C21.175 22.8055 21.1303 22.7607 21.075 22.7607H18.7864C18.4755 22.7607 18.182 22.6175 17.9906 22.3726C17.7992 22.1276 17.7313 21.8081 17.8065 21.5065L18.8647 17.262C18.9996 16.7209 19.5477 16.3915 20.0889 16.5265Z" fill="#FCF2FF"/>
</g>
<defs>
<filter id="filter0_ii_18590_2242" x="1.93433" y="0.5625" width="28.875" height="28.875" filterUnits="userSpaceOnUse" color-interpolation-filters="sRGB">
<feFlood flood-opacity="0" result="BackgroundImageFix"/>
<feBlend mode="normal" in="SourceGraphic" in2="BackgroundImageFix" result="shape"/>
<feColorMatrix in="SourceAlpha" type="matrix" values="0 0 0 0 0 0 0 0 0 0 0 0 0 0 0 0 0 0 127 0" result="hardAlpha"/>
<feOffset dx="1" dy="-1"/>
<feGaussianBlur stdDeviation="1.5"/>
<feComposite in2="hardAlpha" operator="arithmetic" k2="-1" k3="1"/>
<feColorMatrix type="matrix" values="0 0 0 0 0.188235 0 0 0 0 0.470588 0 0 0 0 0.843137 0 0 0 1 0"/>
<feBlend mode="normal" in2="shape" result="effect1_innerShadow_18590_2242"/>
<feColorMatrix in="SourceAlpha" type="matrix" values="0 0 0 0 0 0 0 0 0 0 0 0 0 0 0 0 0 0 127 0" result="hardAlpha"/>
<feOffset dy="-1"/>
<feGaussianBlur stdDeviation="1.5"/>
<feComposite in2="hardAlpha" operator="arithmetic" k2="-1" k3="1"/>
<feColorMatrix type="matrix" values="0 0 0 0 0.27451 0 0 0 0 0.34902 0 0 0 0 0.8 0 0 0 1 0"/>
<feBlend mode="normal" in2="effect1_innerShadow_18590_2242" result="effect2_innerShadow_18590_2242"/>
</filter>
<filter id="filter1_f_18590_2242" x="25.3718" y="1.3125" width="5.5" height="28.375" filterUnits="userSpaceOnUse" color-interpolation-filters="sRGB">
<feFlood flood-opacity="0" result="BackgroundImageFix"/>
<feBlend mode="normal" in="SourceGraphic" in2="BackgroundImageFix" result="shape"/>
<feGaussianBlur stdDeviation="1" result="effect1_foregroundBlur_18590_2242"/>
</filter>
<filter id="filter2_f_18590_2242" x="2.64819" y="0.625" width="27.2812" height="5.5" filterUnits="userSpaceOnUse" color-interpolation-filters="sRGB">
<feFlood flood-opacity="0" result="BackgroundImageFix"/>
<feBlend mode="normal" in="SourceGraphic" in2="BackgroundImageFix" result="shape"/>
<feGaussianBlur stdDeviation="1" result="effect1_foregroundBlur_18590_2242"/>
</filter>
<filter id="filter3_f_18590_2242" x="7.33606" y="4.03564" width="17.9055" height="22.9287" filterUnits="userSpaceOnUse" color-interpolation-filters="sRGB">
<feFlood flood-opacity="0" result="BackgroundImageFix"/>
<feBlend mode="normal" in="SourceGraphic" in2="BackgroundImageFix" result="shape"/>
<feGaussianBlur stdDeviation="0.5" result="effect1_foregroundBlur_18590_2242"/>
</filter>
<filter id="filter4_ii_18590_2242" x="7.33606" y="4.63564" width="17.3055" height="22.3287" filterUnits="userSpaceOnUse" color-interpolation-filters="sRGB">
<feFlood flood-opacity="0" result="BackgroundImageFix"/>
<feBlend mode="normal" in="SourceGraphic" in2="BackgroundImageFix" result="shape"/>
<feColorMatrix in="SourceAlpha" type="matrix" values="0 0 0 0 0 0 0 0 0 0 0 0 0 0 0 0 0 0 127 0" result="hardAlpha"/>
<feOffset dx="-1" dy="1"/>
<feGaussianBlur stdDeviation="1"/>
<feComposite in2="hardAlpha" operator="arithmetic" k2="-1" k3="1"/>
<feColorMatrix type="matrix" values="0 0 0 0 0.866667 0 0 0 0 0.819608 0 0 0 0 0.941176 0 0 0 1 0"/>
<feBlend mode="normal" in2="shape" result="effect1_innerShadow_18590_2242"/>
<feColorMatrix in="SourceAlpha" type="matrix" values="0 0 0 0 0 0 0 0 0 0 0 0 0 0 0 0 0 0 127 0" result="hardAlpha"/>
<feOffset dx="0.4" dy="-0.4"/>
<feGaussianBlur stdDeviation="0.5"/>
<feComposite in2="hardAlpha" operator="arithmetic" k2="-1" k3="1"/>
<feColorMatrix type="matrix" values="0 0 0 0 1 0 0 0 0 0.988235 0 0 0 0 1 0 0 0 1 0"/>
<feBlend mode="normal" in2="effect1_innerShadow_18590_2242" result="effect2_innerShadow_18590_2242"/>
</filter>
<linearGradient id="paint0_linear_18590_2242" x1="15.8718" y1="5.13701" x2="15.8718" y2="38.3897" gradientUnits="userSpaceOnUse">
<stop stop-color="#5CB7FF"/>
<stop offset="1" stop-color="#4878DD"/>
</linearGradient>
<radialGradient id="paint1_radial_18590_2242" cx="0" cy="0" r="1" gradientUnits="userSpaceOnUse" gradientTransform="translate(27.5906 3.65625) rotate(136.771) scale(2.14444 2.50466)">
<stop stop-color="#7BD7FF"/>
<stop offset="1" stop-color="#7BD7FF" stop-opacity="0"/>
</radialGradient>
<linearGradient id="paint2_linear_18590_2242" x1="28.6218" y1="4.0625" x2="28.6218" y2="26.9375" gradientUnits="userSpaceOnUse">
<stop stop-color="#7FD9FF"/>
<stop offset="1" stop-color="#639DF4"/>
</linearGradient>
<linearGradient id="paint3_linear_18590_2242" x1="28.3357" y1="3.62502" x2="2.80444" y2="3.62502" gradientUnits="userSpaceOnUse">
<stop stop-color="#7DD8FF"/>
<stop offset="1" stop-color="#5DB6FF"/>
</linearGradient>
</defs>
</svg>

<svg width="100%" height="100%" viewBox="0 0 32 32" xmlns="http://www.w3.org/2000/svg"><g filter="url(#a)"><rect width="27.875" height="27.875" x="1.934" y="1.563" fill="url(#b)" rx="3.6"/><rect width="27.875" height="27.875" x="1.934" y="1.563" fill="url(#c)" rx="3.6"/></g><g filter="url(#d)"><path stroke="url(#e)" stroke-linecap="round" stroke-width="1.5" d="M28.122 4.063v22.875"/></g><g filter="url(#f)"><path stroke="url(#g)" stroke-linecap="round" stroke-width="1.5" d="M5.398 3.375H27.18"/></g><g fill="#579FFF" filter="url(#h)"><path d="M20.387 7.531c.318-.377.6-.466.779-.475a.72.72 0 0 1 .546.223.9.9 0 0 1 .26.647c0 .255-.101.617-.486 1.03-.364.39-.846.895-1.345 1.417h-.001c-.696.728-1.425 1.491-1.917 2.033-.777.856-.127 2.151.958 2.151h4.05a1.01 1.01 0 0 0 0-2.02H21.1a.1.1 0 0 1-.072-.168l.526-.55c.503-.526 1.001-1.046 1.411-1.487 1.41-1.514 1.274-3.386.175-4.483a2.74 2.74 0 0 0-2.074-.81c-.821.041-1.602.453-2.224 1.193a1.01 1.01 0 0 0 1.546 1.3M12.45 6.046a1.01 1.01 0 0 0-1.74-.697L8.878 7.273a1.01 1.01 0 1 0 1.463 1.393.053.053 0 0 1 .09.036v4.846a1.01 1.01 0 0 0 2.02 0zM10.355 18.971a.898.898 0 1 1 1.177 1.209.1.1 0 0 1-.03.008 1.01 1.01 0 0 0-.08 1.998.899.899 0 1 1-1.113 1.134 1.01 1.01 0 0 0-1.925.612 2.918 2.918 0 1 0 5.093-2.665.105.105 0 0 1 0-.127 2.918 2.918 0 1 0-4.941-3.045 1.01 1.01 0 1 0 1.819.876M20.089 16.527c.541.134.87.682.736 1.224l-.715 2.866a.1.1 0 0 0 .097.124h.868a.1.1 0 0 0 .1-.1v-.538a1.01 1.01 0 0 1 2.02 0v.577c0 .047.034.088.08.1a1.01 1.01 0 0 1 0 1.94.11.11 0 0 0-.08.102v2.117a1.01 1.01 0 0 1-2.02 0V22.86a.1.1 0 0 0-.1-.1h-2.289a1.01 1.01 0 0 1-.98-1.255l1.059-4.244a1.01 1.01 0 0 1 1.224-.736"/></g><g fill="#FCF2FF" filter="url(#i)"><path d="M20.387 7.531c.318-.377.6-.466.779-.475a.72.72 0 0 1 .546.223.9.9 0 0 1 .26.647c0 .255-.101.617-.486 1.03-.364.39-.846.895-1.345 1.417h-.001c-.696.728-1.425 1.491-1.917 2.033-.777.856-.127 2.151.958 2.151h4.05a1.01 1.01 0 0 0 0-2.02H21.1a.1.1 0 0 1-.072-.168l.526-.55c.503-.526 1.001-1.046 1.411-1.487 1.41-1.514 1.274-3.386.175-4.483a2.74 2.74 0 0 0-2.074-.81c-.821.041-1.602.453-2.224 1.193a1.01 1.01 0 0 0 1.546 1.3M12.45 6.046a1.01 1.01 0 0 0-1.74-.697L8.878 7.273a1.01 1.01 0 1 0 1.463 1.393.053.053 0 0 1 .09.036v4.846a1.01 1.01 0 0 0 2.02 0zM10.355 18.971a.898.898 0 1 1 1.177 1.209.1.1 0 0 1-.03.008 1.01 1.01 0 0 0-.08 1.998.899.899 0 1 1-1.113 1.134 1.01 1.01 0 0 0-1.925.612 2.918 2.918 0 1 0 5.093-2.665.105.105 0 0 1 0-.127 2.918 2.918 0 1 0-4.941-3.045 1.01 1.01 0 1 0 1.819.876M20.089 16.527c.541.134.87.682.736 1.224l-.715 2.866a.1.1 0 0 0 .097.124h.868a.1.1 0 0 0 .1-.1v-.538a1.01 1.01 0 0 1 2.02 0v.577c0 .047.034.088.08.1a1.01 1.01 0 0 1 0 1.94.11.11 0 0 0-.08.102v2.117a1.01 1.01 0 0 1-2.02 0V22.86a.1.1 0 0 0-.1-.1h-2.289a1.01 1.01 0 0 1-.98-1.255l1.059-4.244a1.01 1.01 0 0 1 1.224-.736"/></g><defs><filter id="a" width="28.875" height="28.875" x="1.934" y=".563" color-interpolation-filters="sRGB" filterUnits="userSpaceOnUse"><feFlood flood-opacity="0" result="BackgroundImageFix"/><feBlend in="SourceGraphic" in2="BackgroundImageFix" result="shape"/><feColorMatrix in="SourceAlpha" result="hardAlpha" values="0 0 0 0 0 0 0 0 0 0 0 0 0 0 0 0 0 0 127 0"/><feOffset dx="1" dy="-1"/><feGaussianBlur stdDeviation="1.5"/><feComposite in2="hardAlpha" k2="-1" k3="1" operator="arithmetic"/><feColorMatrix values="0 0 0 0 0.188235 0 0 0 0 0.470588 0 0 0 0 0.843137 0 0 0 1 0"/><feBlend in2="shape" result="effect1_innerShadow_18590_2242"/><feColorMatrix in="SourceAlpha" result="hardAlpha" values="0 0 0 0 0 0 0 0 0 0 0 0 0 0 0 0 0 0 127 0"/><feOffset dy="-1"/><feGaussianBlur stdDeviation="1.5"/><feComposite in2="hardAlpha" k2="-1" k3="1" operator="arithmetic"/><feColorMatrix values="0 0 0 0 0.27451 0 0 0 0 0.34902 0 0 0 0 0.8 0 0 0 1 0"/><feBlend in2="effect1_innerShadow_18590_2242" result="effect2_innerShadow_18590_2242"/></filter><filter id="d" width="5.5" height="28.375" x="25.372" y="1.313" color-interpolation-filters="sRGB" filterUnits="userSpaceOnUse"><feFlood flood-opacity="0" result="BackgroundImageFix"/><feBlend in="SourceGraphic" in2="BackgroundImageFix" result="shape"/><feGaussianBlur result="effect1_foregroundBlur_18590_2242" stdDeviation="1"/></filter><filter id="f" width="27.281" height="5.5" x="2.648" y=".625" color-interpolation-filters="sRGB" filterUnits="userSpaceOnUse"><feFlood flood-opacity="0" result="BackgroundImageFix"/><feBlend in="SourceGraphic" in2="BackgroundImageFix" result="shape"/><feGaussianBlur result="effect1_foregroundBlur_18590_2242" stdDeviation="1"/></filter><filter id="h" width="17.905" height="22.929" x="7.336" y="4.036" color-interpolation-filters="sRGB" filterUnits="userSpaceOnUse"><feFlood flood-opacity="0" result="BackgroundImageFix"/><feBlend in="SourceGraphic" in2="BackgroundImageFix" result="shape"/><feGaussianBlur result="effect1_foregroundBlur_18590_2242" stdDeviation=".5"/></filter><filter id="i" width="17.305" height="22.329" x="7.336" y="4.636" color-interpolation-filters="sRGB" filterUnits="userSpaceOnUse"><feFlood flood-opacity="0" result="BackgroundImageFix"/><feBlend in="SourceGraphic" in2="BackgroundImageFix" result="shape"/><feColorMatrix in="SourceAlpha" result="hardAlpha" values="0 0 0 0 0 0 0 0 0 0 0 0 0 0 0 0 0 0 127 0"/><feOffset dx="-1" dy="1"/><feGaussianBlur stdDeviation="1"/><feComposite in2="hardAlpha" k2="-1" k3="1" operator="arithmetic"/><feColorMatrix values="0 0 0 0 0.866667 0 0 0 0 0.819608 0 0 0 0 0.941176 0 0 0 1 0"/><feBlend in2="shape" result="effect1_innerShadow_18590_2242"/><feColorMatrix in="SourceAlpha" result="hardAlpha" values="0 0 0 0 0 0 0 0 0 0 0 0 0 0 0 0 0 0 127 0"/><feOffset dx=".4" dy="-.4"/><feGaussianBlur stdDeviation=".5"/><feComposite in2="hardAlpha" k2="-1" k3="1" operator="arithmetic"/><feColorMatrix values="0 0 0 0 1 0 0 0 0 0.988235 0 0 0 0 1 0 0 0 1 0"/><feBlend in2="effect1_innerShadow_18590_2242" result="effect2_innerShadow_18590_2242"/></filter><linearGradient id="b" x1="15.872" x2="15.872" y1="5.137" y2="38.39" gradientUnits="userSpaceOnUse"><stop stop-color="#5CB7FF"/><stop offset="1" stop-color="#4878DD"/></linearGradient><linearGradient id="e" x1="28.622" x2="28.622" y1="4.063" y2="26.938" gradientUnits="userSpaceOnUse"><stop stop-color="#7FD9FF"/><stop offset="1" stop-color="#639DF4"/></linearGradient><linearGradient id="g" x1="28.336" x2="2.804" y1="3.625" y2="3.625" gradientUnits="userSpaceOnUse"><stop stop-color="#7DD8FF"/><stop offset="1" stop-color="#5DB6FF"/></linearGradient><radialGradient id="c" cx="0" cy="0" r="1" gradientTransform="matrix(-1.56249 1.46876 -1.71548 -1.82495 27.59 3.656)" gradientUnits="userSpaceOnUse"><stop stop-color="#7BD7FF"/><stop offset="1" stop-color="#7BD7FF" stop-opacity="0"/></radialGradient></defs></svg>
